Origami/64x64/apps/Zoom.svg

<svg width="64" height="64" version="1.1" viewBox="0 0 64 64" xmlns="http://www.w3.org/2000/svg">
 <circle cx="32" cy="33" r="28" style="opacity:.2"/>
 <circle cx="32" cy="32" r="28" style="fill:#138de7"/>
 <path d="m15 23v4.285714 11.428572c0 2.374286 1.8955 4.285714 4.25 4.285714h15.583334 4.166666v-4.285714-11.428572c0-2.374286-1.812166-4.285714-4.166666-4.285714h-15.583334zm34 0-8 5v10l8 5v-10z" style="opacity:.2"/>
 <path d="m15 22v4.285714 11.428572c0 2.374286 1.8955 4.285714 4.25 4.285714h15.583334 4.166666v-4.285714-11.428572c0-2.374286-1.812166-4.285714-4.166666-4.285714h-15.583334zm34 0-8 5v10l8 5v-10z" style="fill:#ffffff"/>
 <path d="M 32 4 A 28 28 0 0 0 4 32 A 28 28 0 0 0 4.0175781 32.492188 A 28 28 0 0 1 32 5 A 28 28 0 0 1 59.974609 32.492188 A 28 28 0 0 0 60 32 A 28 28 0 0 0 32 4 z" style="fill:#ffffff;opacity:.2"/>
</svg>

<svg xmlns="http://www.w3.org/2000/svg" width="64" height="64" version="1.1" viewBox="0 0 64 64">
 <circle cx="32" cy="33" r="28" style="opacity:0.2"/>
 <circle style="fill:#138de7" cx="32" cy="32" r="28"/>
 <path d="m 15,23 0,4.285714 0,11.428572 C 15,41.088572 16.8955,43 19.25,43 L 34.833334,43 39,43 39,38.714286 39,27.285714 C 39,24.911428 37.187834,23 34.833334,23 L 19.25,23 Z m 34,0 -8,5 0,10 8,5 0,-10 z" style="opacity:0.2"/>
 <path style="fill:#ffffff" d="m 15,22 0,4.285714 0,11.428572 C 15,40.088572 16.8955,42 19.25,42 L 34.833334,42 39,42 39,37.714286 39,26.285714 C 39,23.911428 37.187834,22 34.833334,22 L 19.25,22 Z m 34,0 -8,5 0,10 8,5 0,-10 z"/>
 <path style="opacity:0.2;fill:#ffffff" d="M 32 4 A 28 28 0 0 0 4 32 A 28 28 0 0 0 4.0175781 32.492188 A 28 28 0 0 1 32 5 A 28 28 0 0 1 59.974609 32.492188 A 28 28 0 0 0 60 32 A 28 28 0 0 0 32 4 z"/>
</svg>
